icons/Cloud_1.svg

<svg width="24" height="24" viewBox="0 0 24 24" fill="none" xmlns="http://www.w3.org/2000/svg">
<path fill-rule="evenodd" clip-rule="evenodd" d="M6.92584,7.60029c1.13375,-1.57362 2.98384,-2.60029 5.07416,-2.60029c3.2184,0 5.8686,2.4326 6.2123,5.5594c2.0081,0.3389 3.5377,2.0861 3.5377,4.1906c0,2.3472 -1.9028,4.25 -4.25,4.25h-4.5h-1h-4c-3.17564,0 -5.75,-2.5744 -5.75,-5.75c0,-2.8088 2.01331,-5.14626 4.67584,-5.64971zM12,6.5c-1.6815,0 -3.15949,0.87313 -4.00467,2.19429l-0.18911,0.29563l-0.34815,0.04423c-2.091,0.26564 -3.70807,2.05245 -3.70807,4.21585c0,2.3472 1.90279,4.25 4.25,4.25h4h1h4.5c1.5188,0 2.75,-1.2312 2.75,-2.75c0,-1.5188 -1.2312,-2.75 -2.75,-2.75h-0.75v-0.75c0,-2.62335 -2.1266,-4.75 -4.75,-4.75z" fill="#002B51"/>
</svg>

<svg width="24" height="24" viewBox="0 0 24 24" fill="none" xmlns="http://www.w3.org/2000/svg">
<path fill-rule="evenodd" clip-rule="evenodd" d="M6.92584 7.60029C8.05959 6.02667 9.90968 5 12 5C15.2184 5 17.8686 7.4326 18.2123 10.5594C20.2204 10.8983 21.75 12.6455 21.75 14.75C21.75 17.0972 19.8472 19 17.5 19H13H12H8C4.82436 19 2.25 16.4256 2.25 13.25C2.25 10.4412 4.26331 8.10374 6.92584 7.60029ZM12 6.5C10.3185 6.5 8.84051 7.37313 7.99533 8.69429L7.80622 8.98992L7.45807 9.03415C5.36707 9.29979 3.75 11.0866 3.75 13.25C3.75 15.5972 5.65279 17.5 8 17.5H12H13H17.5C19.0188 17.5 20.25 16.2688 20.25 14.75C20.25 13.2312 19.0188 12 17.5 12H16.75V11.25C16.75 8.62665 14.6234 6.5 12 6.5Z" fill="#002B51"/>
</svg>
